fonts/editor-link.svg

<?xml version="1.0" encoding="UTF-8" standalone="no"?><!DOCTYPE svg PUBLIC "-//W3C//DTD SVG 1.1//EN" "http://www.w3.org/Graphics/SVG/1.1/DTD/svg11.dtd"><svg width="200px" height="200px" version="1.1" xmlns="http://www.w3.org/2000/svg" xmlns:xlink="http://www.w3.org/1999/xlink" xml:space="preserve" xmlns:serif="http://www.serif.com/" style="fill-rule:evenodd;clip-rule:evenodd;stroke-linejoin:round;stroke-miterlimit:1.41421;"><path d="M84.25,60.026l0,15.989c0,0 -20.692,0 -37.895,0c-6.024,0 -11.802,2.526 -16.061,7.021c-4.26,4.495 -6.653,10.591 -6.653,16.948l0,0.024c0,6.341 2.4,12.419 6.666,16.883c4.266,4.465 10.046,6.946 16.054,6.893c17.202,-0.151 37.889,-0.334 37.889,-0.334l0,16.524c0,0 -18.94,0 -37.88,0c-20.921,0 -37.881,-17.897 -37.881,-39.974l0,0c0,-22.077 16.96,-39.974 37.881,-39.974l37.88,0Zm31.5,0c0,0 18.94,0 37.88,0c20.921,0 37.881,17.897 37.881,39.974l0,0c0,22.077 -16.96,39.974 -37.881,39.974c-18.94,0 -37.88,0 -37.88,0l0,-16.524c0,0 20.687,0.183 37.889,0.334c6.008,0.053 11.788,-2.428 16.054,-6.893c4.266,-4.464 6.666,-10.542 6.666,-16.883c0,-0.005 0,-0.008 0,-0.008c0,0 0,-0.005 0,-0.016c0,-6.357 -2.393,-12.453 -6.653,-16.948c-4.259,-4.495 -10.037,-7.021 -16.061,-7.021c-17.203,0 -37.895,0 -37.895,0l0,-15.989Zm5.399,47.992l-45.22,0l0,-16.036l45.22,0l0,16.036Z"/></svg>

<?xml version="1.0" encoding="UTF-8" standalone="no"?>
<!DOCTYPE svg PUBLIC "-//W3C//DTD SVG 1.1//EN" "http://www.w3.org/Graphics/SVG/1.1/DTD/svg11.dtd">
<svg width="200px" height="200px" version="1.1" xmlns="http://www.w3.org/2000/svg" xmlns:xlink="http://www.w3.org/1999/xlink" xml:space="preserve" xmlns:serif="http://www.serif.com/" style="fill-rule:evenodd;clip-rule:evenodd;stroke-linejoin:round;stroke-miterlimit:1.41421;">
    <path d="M84.25,60.026L84.25,76.015C84.25,76.015 63.558,76.015 46.355,76.015C40.331,76.015 34.553,78.541 30.294,83.036C26.034,87.531 23.641,93.627 23.641,99.984L23.641,100.008C23.641,106.349 26.041,112.427 30.307,116.891C34.573,121.356 40.353,123.837 46.361,123.784C63.563,123.633 84.25,123.45 84.25,123.45L84.25,139.974C84.25,139.974 65.31,139.974 46.37,139.974C25.449,139.974 8.489,122.077 8.489,100L8.489,100C8.489,77.923 25.449,60.026 46.37,60.026L84.25,60.026ZM115.75,60.026C115.75,60.026 134.69,60.026 153.63,60.026C174.551,60.026 191.511,77.923 191.511,100L191.511,100C191.511,122.077 174.551,139.974 153.63,139.974C134.69,139.974 115.75,139.974 115.75,139.974L115.75,123.45C115.75,123.45 136.437,123.633 153.639,123.784C159.647,123.837 165.427,121.356 169.693,116.891C173.959,112.427 176.359,106.349 176.359,100.008C176.359,100.003 176.359,100 176.359,100C176.359,100 176.359,99.995 176.359,99.984C176.359,93.627 173.966,87.531 169.706,83.036C165.447,78.541 159.669,76.015 153.645,76.015C136.442,76.015 115.75,76.015 115.75,76.015L115.75,60.026ZM121.149,108.018L75.929,108.018L75.929,91.982L121.149,91.982L121.149,108.018Z"/>
</svg>
